assets/icons/qvision/live_help.svg

<svg xmlns="http://www.w3.org/2000/svg" height="24" viewBox="0 0 24 24" width="24"><path d="M0 0h24v24H0z" fill="none"/><path d="M19 2H5c-1.11 0-2 .9-2 2v14c0 1.1.89 2 2 2h4l3 3 3-3h4c1.1 0 2-.9 2-2V4c0-1.1-.9-2-2-2zm-6 16h-2v-2h2v2zm2.07-7.75-.9.92C13.45 11.9 13 12.5 13 14h-2v-.5c0-1.1.45-2.1 1.17-2.83l1.24-1.26c.37-.36.59-.86.59-1.41 0-1.1-.9-2-2-2s-2 .9-2 2H8c0-2.21 1.79-4 4-4s4 1.79 4 4c0 .88-.36 1.68-.93 2.25z"/></svg>

<svg width="24" height="24" viewBox="0 0 24 24" fill="none" xmlns="http://www.w3.org/2000/svg">
<g clip-path="url(#clip0_147_1863)">
<path d="M19 2H5C3.89 2 3 2.9 3 4V18C3 19.1 3.89 20 5 20H9L12 23L15 20H19C20.1 20 21 19.1 21 18V4C21 2.9 20.1 2 19 2ZM13 18H11V16H13V18ZM15.07 10.25L14.17 11.17C13.45 11.9 13 12.5 13 14H11V13.5C11 12.4 11.45 11.4 12.17 10.67L13.41 9.41C13.78 9.05 14 8.55 14 8C14 6.9 13.1 6 12 6C10.9 6 10 6.9 10 8H8C8 5.79 9.79 4 12 4C14.21 4 16 5.79 16 8C16 8.88 15.64 9.68 15.07 10.25Z" fill="#323232"/>
</g>
<defs>
<clipPath id="clip0_147_1863">
<rect width="24" height="24" fill="white"/>
</clipPath>
</defs>
</svg>
